X:1
T:Lift Me Higher
T:Lift Me Higher
T:Hampton Haygood Sewell
T:Mary Louisa Oni Cornwell Holler, 1895
T:Public Domain Courtesy of the Cyber Hymnal™
C:Hampton Haygood Sewell
Z:Public Domain
Z:Courtesy of the Cyber Hymnal™
%%score ( 1 2 ) ( 3 4 )
L:1/8
Q:1/4=100
M:4/4
K:G
V:1 treble 
V:2 treble 
V:3 bass 
V:4 bass 
V:1
 [DB]3 [DB] [Ec][DB][CA]G | [EG]4 [CE]2 [CE]>[CE] | [B,D]2 [DG]2 [^CB]2 [CA]2 | [DA]6 z2 | %4
w: 1.~Lift me high- er, bless- èd|Mas- ter, High- er|still in- to the|light,|
w: 2.~Hold me clos- er, bless- èd|Mas- ter, In a|firm and fond em-|brace;|
w: 3.~Make me pur- er, bless- èd|Mas- ter, Pure in|pur- pose, deed and|heart;|
 [GB]3 [GB] [Gc][GB][FA]G | [EG]4 [CE]2 [CE]>[CE] | [B,D]2 [DG]2 [GB]2 [FA]2 | G6 z2 || %8
w: Up a- bove the fear- ful|sha- dows Of earth’s|sin and gloom and|night.|
w: Let no sha- dows pass be-|tween me And the|glo- ry of Thy|face.|
w: May the pur- i- ty of|Je- sus Of my|own life form a|part.|
"^Refrain" [GB]4 G4 | [EG]4 [CE]4 | [B,D]2 [DG]2 [DB]3 [DB] | [DA]2 [Gc]2 [Fd]4 | %12
w: High- er,|Sav- ior,|Near- er to Thy|pierc- èd side,|
w: ||||
w: ||||
 [Gd]3 [Gd] [Ge][Gd][Gc][GB] | (A2 G2) [CE]2 [CE]>[CE] | [B,D]2 [DG]2 [GB]2 [DA]2 | [DG]6 z2 |] %16
w: With Thy lov- ing arms a-|bout * me, Let me|ev- er- more a-|bide.|
w: ||||
w: ||||
V:2
 x7 G | x8 | x8 | x8 | x7 G | x8 | x8 | G6 x2 || x4 G4 | x8 | x8 | x8 | x8 | E4 x4 | x8 | x8 |] %16
V:3
 [G,,G,]3 [G,,G,] [G,,G,][G,,G,][G,,G,][B,,G,] | [C,G,]4 [C,G,]2 [C,G,]>[C,G,] | %2
w: ~ ~ ~ ~ ~ ~|~ ~ ~ ~|
 [G,,G,]2 [B,,G,]2 [A,,G,]2 [A,,G,]2 | [D,F,]6 z2 | [G,D]3 [G,D] [G,E][G,D][D,C][E,B,] | %5
w: ~ ~ ~ ~|~|~ ~ ~ ~ ~ ~|
 [C,C]4 [C,G,]2 [C,G,]>[C,G,] | [D,G,]2 [D,B,]2 [D,D]2 [D,C]2 | [G,,B,]6 z2 || %8
w: ~ ~ ~ ~|~ ~ ~ ~|~|
 [G,D]2 [G,D]2 [G,B,]2 [G,B,]2 | [C,C]2 [C,C]2 [C,G,]2 [C,G,]2 | [G,,G,]2 [B,,G,]2 [D,G,]3 G, | %11
w: Lift me high- er,|bless- èd Sav- ior,||
 [F,A,]2 [E,A,]2 A,2 C2 | [G,B,]3 [G,B,] [G,C][G,B,][G,E][G,D] | [C,C]4 [C,G,]2 [C,G,]>[C,G,] | %14
w: |||
 [D,G,]2 [D,B,]2 [D,D]2 [D,C]2 | [G,,B,]6 z2 |] %16
w: ||
V:4
 x8 | x8 | x8 | x8 | x8 | x8 | x8 | x8 || x8 | x8 | x7 G, | x4 D,4 | x8 | x8 | x8 | x8 |] %16

